common/src/main/resources/icons/expui/toolwindow/web@20x20.svg

<svg xmlns="http://www.w3.org/2000/svg" width="20" height="20" viewBox="0 0 24 24"><path fill="#81D4FA" d="M17.9 17.39c-.26-.8-1.01-1.39-1.9-1.39h-1v-3a1 1 0 0 0-1-1H8v-2h2a1 1 0 0 0 1-1V7h2a2 2 0 0 0 2-2v-.41a7.984 7.984 0 0 1 2.9 12.8M11 19.93c-3.95-.49-7-3.85-7-7.93 0-.62.08-1.22.21-1.79L9 15v1a2 2 0 0 0 2 2m1-16A10 10 0 0 0 2 12a10 10 0 0 0 10 10 10 10 0 0 0 10-10A10 10 0 0 0 12 2"/></svg>

<!--
  - The MIT License (MIT)
  -
  - Copyright (c) 2015-2022 Elior "Mallowigi" Boukhobza
  -
  - Permission is hereby granted, free of charge, to any person obtaining a copy
  - of this software and associated documentation files (the "Software"), to deal
  - in the Software without restriction, including without limitation the rights
  - to use, copy, modify, merge, publish, distribute, sublicense, and/or sell
  - copies of the Software, and to permit persons to whom the Software is
  - furnished to do so, subject to the following conditions:
  -
  - The above copyright notice and this permission notice shall be included in all
  - copies or substantial portions of the Software.
  -
  - THE SOFTWARE IS PROVIDED "AS IS", WITHOUT WARRANTY OF ANY KIND, EXPRESS OR
  - IMPLIED, INCLUDING BUT NOT LIMITED TO THE WARRANTIES OF MERCHANTABILITY,
  - FITNESS FOR A PARTICULAR PURPOSE AND NONINFRINGEMENT. IN NO EVENT SHALL THE
  - AUTHORS OR COPYRIGHT HOLDERS BE LIABLE FOR ANY CLAIM, DAMAGES OR OTHER
  - LIABILITY, WHETHER IN AN ACTION OF CONTRACT, TORT OR OTHERWISE, ARISING FROM,
  - OUT OF OR IN CONNECTION WITH THE SOFTWARE OR THE USE OR OTHER DEALINGS IN THE
  - SOFTWARE.
  -
  -
  -->


<svg xmlns="http://www.w3.org/2000/svg" version="1.1" width="20px" height="20px" viewBox="0 0 24 24">
  <path fill="#81D4FA"
        d="M17.9,17.39C17.64,16.59 16.89,16 16,16H15V13A1,1 0 0,0 14,12H8V10H10A1,1 0 0,0 11,9V7H13A2,2 0 0,0 15,5V4.59C17.93,5.77 20,8.64 20,12C20,14.08 19.2,15.97 17.9,17.39M11,19.93C7.05,19.44 4,16.08 4,12C4,11.38 4.08,10.78 4.21,10.21L9,15V16A2,2 0 0,0 11,18M12,2A10,10 0 0,0 2,12A10,10 0 0,0 12,22A10,10 0 0,0 22,12A10,10 0 0,0 12,2Z" />
</svg>
